**harm	**kern	**silbe
*M4/4	*ICvox	*
*	*VRlead	*
*	*Hstimme	*
*f:	*f:	*
*	*M4/4	*
*	*clefF4	*
1r;	r;	.
=1	=1	=1
*>Letter>A	*>Letter>A	*>Letter>A
*>Label>Intro	*>Label>Intro	*>Label>Intro
1i7	1r	.
=2	=2	=2
2i7f	1r	.
4i7b	.	.
4i7e	.	.
=3	=3	=3
1i7	1r	.
=4	=4	=4
2i7f	2r	.
4i7b	8r	.
.	4F	Girl
4i7e	.	.
.	8E-	you
=5	=5	=5
*>Letter>B	*>Letter>B	*>Letter>B
*>Label>Verse	*>Label>Verse	*>Label>Verse
1i7	8F	thought
.	8F	you
.	8F	found
.	8F	the
.	8F	an-
.	8F	-swer
.	8F	on
.	8F	that
=6	=6	=6
2i7f	8F	mag-
.	8F	-ic
.	8F	car-
.	8F	-pet
4i7b	8F	ride
.	4A-	last
4i7e	.	.
.	[8c	night
=7	=7	=7
1i7	2c]	_
.	2r	.
=8	=8	=8
2i7f	2r	.
4i7b	8r	.
.	8c	But
4i7e	8e-	when
.	8c	you
=9	=9	=9
1i7	8e-	wake
.	8f	up
.	8r	.
.	16f	in
.	16f	the
.	8f	mor-
.	8e-	_
.	16e-	-nin'
.	16e-	the
.	[8f	world
=10	=10	=10
2i7f	4.f]	_
.	8e-	still
4i7b	8c	gets
.	8B-	you
4i7e	8A-	up-
.	[8c	-tight
=11	=11	=11
1i7	2c]	_
.	2r	.
=12	=12	=12
2i7f	2r	.
4i7b	8r	.
.	4c	Well
4i7e	.	.
.	8A-	there's
=13	=13	=13
1-VI	8B-	noth-
.	8A-	-in'
.	8B-	that
.	8A-	uh
.	8B-	you
.	4A-	ain't
.	[8B-	tried
=14	=14	=14
1-VI	4B-]	_
.	4r	.
.	4.r	.
.	8A-	To
=15	=15	=15
1i	8c	fill
.	8A-	the
.	8A-	em-
.	8A-	-pti-
.	8A-	-ness
.	4B-	in
.	8F	side
=16	=16	=16
2i	4A-	_
.	4r	.
2i7	4r	.
.	8c	When
.	8A-	you
=17	=17	=17
1-VI	8B-	come
.	4c	back
.	8B-	down
.	8A-	_
.	4A-	girl
.	8r	.
=18	=18	=18
1-VI	8c	Still
.	4c	ain't
.	8r	.
.	8B-	feel-
.	4A-	-in'
.	[8c	right
=19	=19	=19
1V7	2.c]	_
.	4r	.
=20	=20	=20
1V7	8r	.
.	8F	And
.	8c	don't
.	8B-	it
.	4c	seem
.	4c	like
=21	=21	=21
*>Letter>C	*>Letter>C	*>Letter>C
*>Label>Chorus	*>Label>Chorus	*>Label>Chorus
1-III	4c	Kicks
.	4c	just
.	4c	keep
.	8c	get-
.	8A-	-tin'
=22	=22	=22
1-VI	8B-	har-
.	8A-	-der
.	8A-	to
.	8c	find
.	8r	.
.	8A-	and
.	8B-	all
.	8A-	your
=23	=23	=23
1-III	4c	kicks
.	4c	ain't
.	4c	bring-
.	4c	-in'
=24	=24	=24
1-VI	8B-	you
.	8A-	piece
.	8A-	of
.	8c	mind
.	8r	.
.	8A-	Be-
.	8B-	-fore
.	8A-	you
=25	=25	=25
1-III	4c	find
.	4c	out
.	8c	it's
.	4c	too
.	8c	late
=26	=26	=26
1-III	8r	.
.	4c	girl
.	8c	you
.	8c	be-
.	8B-	-tter
.	4A-	get
=27	=27	=27
1V7	[1c	straight
=28	=28	=28
1V7	8c]	_
.	4c	No
.	8A-	but
.	4B-	not
.	4A-	with
=29	=29	=29
*>Letter>A	*>Letter>A	*>Letter>A
*>Label>Trans	*>Label>Trans	*>Label>Trans
1i7	2F	kicks
.	2r	.
=30	=30	=30
2i7f	4.r	.
.	8F	You
4i7b	4F	just
4i7e	8A-	need
.	8r	.
=31	=31	=31
1i7	8c	help
.	4.F	girl
.	2r	.
=32	=32	=32
2i7f	2r	.
4i7b	8r	.
.	4F	Well
4i7e	.	.
.	8E-	you
=33	=33	=33
*>Letter>B	*>Letter>B	*>Letter>B
*>Label>Verse	*>Label>Verse	*>Label>Verse
1i7	8F	think
.	8F	you're
.	16F	gon-
.	16F	-na
.	4F	find
.	8F	your-
.	8F	-self
.	8F	a
=34	=34	=34
2i7f	8F	lit-
.	8F	-tle
.	8F	piece
.	8F	of
4i7b	8F	par-
.	4A-	-a-
4i7e	.	.
.	[8c	-dise
=35	=35	=35
1i7	2c]	_
.	2r	.
=36	=36	=36
2i7f	2.r	.
4i7b	.	.
4i7e	16c	But
.	16c	it
.	[8e-	ain't
=37	=37	=37
1i7	8e-]	_
.	4f	hap-
.	8e-	-pened
.	8f	yet
.	4r	.
.	8e-	so
=38	=38	=38
2i7f	4.f	girl
.	8e-	you
4i7b	16B-	be-
.	8.B-	-tter
4i7e	4A-	think
=39	=39	=39
1i7	2c	twice
.	2r	.
=40	=40	=40
2i7f	2r	.
4i7b	4r	.
4i7e	8c	Don't
.	8A-	you
=41	=41	=41
1-VI	8B-	see
.	8A-	no
.	8B-	mat-
.	8A-	-ter
.	6r	.
.	6B-	what
.	6A-	you
=42	=42	=42
1-VI	8B	do
.	8c	_
.	4r	.
.	4r	.
.	8r	.
.	8A-	You'll
=43	=43	=43
1i	8c	ne-
.	4A-	-ver
.	16A-	run-
.	16A-	-a-
.	8A-	-way
.	4B-	from
.	8F	you
=44	=44	=44
2i	4A-	_
.	4r	.
2i7	8r	.
.	8A-	And
.	8c	if
.	8B-	you
=45	=45	=45
1-VI	4B-	keep
.	4c	on
.	8B-	run-
.	8A-	-nin'
.	4r	.
=46	=46	=46
1-VI	8r	.
.	8c	you'll
.	8c	have
.	8c	to
.	8B-	pay
.	4A-	the
.	[8c	price
=47	=47	=47
1V7	2.c]	_
.	4r	.
=48	=48	=48
1V7	8r	.
.	8F	And
.	8c	don't
.	8B-	it
.	4c	seem
.	4c	like
=49	=49	=49
*>Letter>C	*>Letter>C	*>Letter>C
*>Label>Chorus	*>Label>Chorus	*>Label>Chorus
1-III	4c	Kicks
.	4c	just
.	4c	keep
.	8c	get-
.	8A-	-tin'
=50	=50	=50
1-VI	8B-	har-
.	8A-	-der
.	8A-	to
.	8c	find
.	8r	.
.	8A-	and
.	8B-	all
.	8A-	your
=51	=51	=51
1-III	4c	kicks
.	4c	ain't
.	4c	bring-
.	4c	-in'
=52	=52	=52
1-VI	8B-	you
.	8A-	piece
.	8A-	of
.	8c	mind
.	8r	.
.	8A-	Be-
.	8B-	-fore
.	8A-	you
=53	=53	=53
1-III	4c	find
.	4c	out
.	8c	it's
.	4c	too
.	8c	late
=54	=54	=54
1-III	8r	.
.	4c	girl
.	8c	you
.	8c	be-
.	8B-	-tter
.	4A-	get
=55	=55	=55
1V7	[1c	straight
=56	=56	=56
1V7	8c]	_
.	4c	No
.	8A	you
.	4B-	don't
.	4A	need
=57	=57	=57
*>Letter>D	*>Letter>D	*>Letter>D
*>Label>Bridge	*>Label>Bridge	*>Label>Bridge
1I	2.F	kicks
.	4r	.
=58	=58	=58
1I	4.r	.
.	8A-	To
.	4A-	help
.	4c	you
=59	=59	=59
1vi	4d-	face
.	8r	.
.	8A-	the
.	8A-	world
.	4G	each
.	[8F	day
=60	=60	=60
1vi	8F]	_
.	8r	.
.	4r	.
.	4G	That
.	8A-	road
.	8G	_
=61	=61	=61
1IV	4F	goes
.	8G	no-
.	4.F	-where
.	4r	.
=62	=62	=62
1IV	4.r	.
.	4F	I'm
.	8A-	gon-
.	4c	-na
=63	=63	=63
1V	8c	help
.	4c	you
.	4c	find
.	4c	your-
.	8c	-self
=64	=64	=64
1V	4f	_
.	8r	.
.	8c	a-
.	8c	-no-
.	4d-	-ther
.	8d-	way
=65	=65	=65
*>Letter>C	*>Letter>C	*>Letter>C
*>Label>Chorus	*>Label>Chorus	*>Label>Chorus
1-III	4c	_
.	4r	.
.	2r	.
.	.	.
.	.	.
=66	=66	=66
1-VI	8r	.
.	4f	Oh
.	.	.
.	8e-	you
.	8f	don't
.	8f	need
.	8e-	_
.	8e-	kicks
=67	=67	=67
1-III	8r	.
.	8e-	girl
.	8c	_
.	4.e-	_
.	.	.
.	4r	.
=68	=68	=68
1-VI	2r	.
.	.	.
.	.	.
.	.	.
.	8f	Just
.	4f	need
.	.	.
.	8e-	help
=69	=69	=69
1-III	8r	.
.	4e-	girl
.	.	.
.	8c	_
.	16e-	_
.	16d-	_
.	4.c	_
.	.	.
=70	=70	=70
1-III	8r	.
.	4c	girl
.	8c	you
.	8c	be-
.	8B-	-tter
.	4A-	get
=71	=71	=71
1V7	[1c	straight
=72	=72	=72
1V7	4c]	_
.	8c	don't
.	8B-	it
.	4c	seem
.	4c	like
=73	=73	=73
*>Letter>C	*>Letter>C	*>Letter>C
*>Label>Fadeout	*>Label>Fadeout	*>Label>Fadeout
1-III	1r	.
.	.	.
.	.	.
.	.	.
.	.	.
=74	=74	=74
1-VI	8r	.
.	4f	Oh
.	.	.
.	8e-	you
.	8f	don't
.	4e-	need
.	.	.
.	8e-	kicks
=75	=75	=75
1-III	8r	.
.	4e-	girl
.	.	.
.	8c	_
.	16e-	_
.	16d-	_
.	4.c	_
.	.	.
=76	=76	=76
1-VI	8r	.
.	4f	Oh
.	.	.
.	8e-	you
.	8f	just
.	4e-	need
.	.	.
.	8e-	help
=77	=77	=77
1-III	1r	.
.	.	.
.	.	.
.	.	.
.	.	.
=78	=78	=78
1-III	1r	.
.	.	.
.	.	.
.	.	.
.	.	.
.	.	.
=79	=79	=79
1V7	1r	.
=80	=80	=80
1V7	1r	.
1r;	r;	.
1r;	r;	.
*-	*-	*-
!!!BillboardChartDate: 1966/06/04
!!!BillboardPeak: 4
!!!BillboardWeeksOnChart: 14
!!!COC: Paul Revere & The Raiders
!!!ENC: Nathaniel Condit-Schultz
!!!EST: Awating manual error checking and editing.
!!!OTL: Kicks
!!!RDF**harte: Chris Harte's syntax, used by MIREX
!!!RDF**harmony: **recip + pitch class of root + harmonic quality
!!!RDF**leadinstrument: original McGill primary instrumentation annotation
!!!RDF**phrase: newline = linebreak in original McGill transcription
!!!RDF**timestamp: McGill audio timestamp in seconds
!!!RDT: 2017/01/12/
!!!SampleActualRank: 14
!!!SampleID#: 1181
!!!SampleTargetRank: 14
!!!MBID: daf3db61-0da0-4c6f-b588-326fe3cd415d
!!!EMD: Edited in humdrumR 0.7.0.7 on 2024-11-06
